X: 377
T: A Tailor I Am
R: jig
M: 6/8
K: Gmajor
|:d|~B3 dBA|GBA G2B|dcB c2d|ecA Adc|
BAB dBA|GBA G2B|dcB Adc|BGG G2:|
|:d|dBd g2a|bga g2e|dcB c2d|ecA A2 3(e/f/g)|
afd g2a|bga g2e|dcB Adc|BGG G2:|

